X:164
T:Blinde-Hans' polska
R:sl\"angpolska
A:Gotland
Z:id:hn-sp-164
M:3/4
L:1/16
K:Dm
abag fgfe d3e | f2ed ^cdec A4 | d3^c d2e2 f2g2 |1 aba^g g4 a4 :|
[2 aba^g g4 a3e |: fefg a2f2 f2f2 | f2ef g2ag fed^c |
defg a2f2 f2f2 | f2ef g2ag fed^c | d3e fefg a3g |1 fed^c e4 d3e :|
[2 fed^c e4 d4 ||

